icons/telescope.svg

<svg xmlns="http://www.w3.org/2000/svg" viewBox="0 0 24 24"><path fill="#9575cd" d="m21.9 8.9-1.7 1-4-6.9 1.7-1zm-12.1-1 3 5.2 6.1-3.5-3-5.2zm1.6 4.8-2-3.5-4.3 2.5 2 3.5zm-9.3 1.9 1 1.7 2.6-1.5-1-1.7zm10-.6-.3-.4-4.3 2.5.3.4c.2.3.5.6.8.8L7 22h2l1.4-4.3h.1L12 22h2l-1.9-5.6c.5-.7.5-1.6 0-2.4"/></svg>

<svg xmlns="http://www.w3.org/2000/svg" viewBox="0 0 24 24" width="16px" height="16px">
    <path fill="#9575CD"
          d="M21.9,8.9L20.2,9.9L16.2,3L17.9,2L21.9,8.9M9.8,7.9L12.8,13.1L18.9,9.6L15.9,4.4L9.8,7.9M11.4,12.7L9.4,9.2L5.1,11.7L7.1,15.2L11.4,12.7M2.1,14.6L3.1,16.3L5.7,14.8L4.7,13.1L2.1,14.6M12.1,14L11.8,13.6L7.5,16.1L7.8,16.5C8,16.8 8.3,17.1 8.6,17.3L7,22H9L10.4,17.7H10.5L12,22H14L12.1,16.4C12.6,15.7 12.6,14.8 12.1,14Z" />
</svg>
